X:223 
T:West the Hill (hornpipe) 
B:CRE 3.228 (Siar an Cnoc)
F:file ID: cre.3/223west
L:1/8
Q:150
M:4/4
R:hornpipe
K:G
GE|D3 E (3GAG EG|ABcA BG~G2|ABcd eBdB|ABAG EAGE|
DB,DE (3GAG (3EFG|ABcd gfgd|(3BdB GB ADFA|GBAF G2:|
ef|gfed (3efe de|gedB d2 dB|cBcd gedB|ABAG EAGE|
DB,DE (3GAG (3EFG|ABcd gfgd|(3BdB GB ADFA|GBAF G2:|

%%%

